assets/heart-hover.svg

<svg width="56" height="56" viewBox="0 0 56 56" fill="none" xmlns="http://www.w3.org/2000/svg">
<rect x="0.5" y="0.5" width="55" height="55" rx="27.5" fill="#AD6251"/>
<rect x="0.5" y="0.5" width="55" height="55" rx="27.5" stroke="#2E2E2E"/>
<path fill-rule="evenodd" clip-rule="evenodd" d="M28 21.7123C25.4009 18.8232 21.0577 17.9304 17.8011 20.5759C14.5445 23.2214 14.0861 27.6446 16.6435 30.7735C18.7698 33.3749 25.2047 38.8616 27.3138 40.6375C27.5496 40.8362 27.6676 40.9355 27.8053 40.9745C27.9253 41.0085 28.0568 41.0085 28.177 40.9745C28.3146 40.9355 28.4325 40.8362 28.6685 40.6375C30.7775 38.8616 37.2124 33.3749 39.3388 30.7735C41.8962 27.6446 41.4936 23.1936 38.181 20.5759C34.8685 17.9582 30.5991 18.8232 28 21.7123Z" fill="#D3CBAE"/>
</svg>

<?xml version="1.0" encoding="UTF-8"?>
<svg id="Layer_1" xmlns="http://www.w3.org/2000/svg" version="1.1" viewBox="0 0 56 56">
  <!-- Generator: Adobe Illustrator 29.1.0, SVG Export Plug-In . SVG Version: 2.1.0 Build 142)  -->
  <defs>
    <style>
      .st0 {
        fill: none;
        stroke: #2e2e2e;
      }

      .st1 {
        fill: #d3cbae;
      }

      .st2 {
        fill: #ad6251;
        fill-rule: evenodd;
      }
    </style>
  </defs>
  <path class="st1" d="M28,.5h0c15.2,0,27.5,12.3,27.5,27.5h0c0,15.2-12.3,27.5-27.5,27.5h0C12.8,55.5.5,43.2.5,28h0C.5,12.8,12.8.5,28,.5Z"/>
  <path class="st0" d="M28,.5h0c15.2,0,27.5,12.3,27.5,27.5h0c0,15.2-12.3,27.5-27.5,27.5h0C12.8,55.5.5,43.2.5,28h0C.5,12.8,12.8.5,28,.5Z"/>
  <path class="st2" d="M28,21.7c-2.6-2.9-6.9-3.8-10.2-1.1-3.3,2.6-3.7,7.1-1.2,10.2,2.1,2.6,8.6,8.1,10.7,9.9.2.2.4.3.5.3.1,0,.3,0,.4,0,.1,0,.3-.1.5-.3,2.1-1.8,8.5-7.3,10.7-9.9,2.6-3.1,2.2-7.6-1.2-10.2-3.3-2.6-7.6-1.8-10.2,1.1Z"/>
</svg>
